languages/cpp.svg

<svg fill="#000000" xmlns="http://www.w3.org/2000/svg"  viewBox="0 0 50 50" width="50px" height="50px"><path d="M 43.910156 12.003906 L 27.070313 2.539063 C 25.792969 1.824219 24.207031 1.824219 22.929688 2.539063 L 6.089844 12.003906 C 4.800781 12.726563 4 14.082031 4 15.535156 L 4 34.464844 C 4 35.917969 4.800781 37.273438 6.089844 37.996094 L 22.929688 47.460938 C 23.570313 47.820313 24.285156 48 25 48 C 25.714844 48 26.429688 47.820313 27.070313 47.460938 L 43.910156 37.996094 C 45.199219 37.273438 46 35.917969 46 34.464844 L 46 15.535156 C 46 14.082031 45.199219 12.726563 43.910156 12.003906 Z M 25 37 C 18.382813 37 13 31.617188 13 25 C 13 18.382813 18.382813 13 25 13 C 28.78125 13 32.273438 14.753906 34.542969 17.742188 L 30.160156 20.277344 C 28.84375 18.835938 26.972656 18 25 18 C 21.140625 18 18 21.140625 18 25 C 18 28.859375 21.140625 32 25 32 C 26.972656 32 28.84375 31.164063 30.160156 29.722656 L 34.542969 32.257813 C 32.273438 35.246094 28.78125 37 25 37 Z M 37 26 L 35 26 L 35 28 L 33 28 L 33 26 L 31 26 L 31 24 L 33 24 L 33 22 L 35 22 L 35 24 L 37 24 Z M 44 26 L 42 26 L 42 28 L 40 28 L 40 26 L 38 26 L 38 24 L 40 24 L 40 22 L 42 22 L 42 24 L 44 24 Z"/></svg>

<svg viewBox="0 0 50 50"><path d="M43.91 12.004 27.07 2.539a4.265 4.265 0 0 0-4.14 0L6.09 12.004A4.066 4.066 0 0 0 4 15.535v18.93c0 1.453.8 2.808 2.09 3.531l16.84 9.465c.64.36 1.355.539 2.07.539.715 0 1.43-.18 2.07-.54l16.84-9.464A4.066 4.066 0 0 0 46 34.465v-18.93c0-1.453-.8-2.808-2.09-3.531ZM25 37c-6.617 0-12-5.383-12-12s5.383-12 12-12c3.781 0 7.273 1.754 9.543 4.742l-4.383 2.535A6.993 6.993 0 0 0 25 18c-3.86 0-7 3.14-7 7s3.14 7 7 7a6.993 6.993 0 0 0 5.16-2.277l4.383 2.535A11.931 11.931 0 0 1 25 37Zm12-11h-2v2h-2v-2h-2v-2h2v-2h2v2h2Zm7 0h-2v2h-2v-2h-2v-2h2v-2h2v2h2Z"/></svg>
